X: 1
T: Bake Them Hoe-Cakes Brown
%O: from Viola Ruth
B: Lee Owens "Advanced Square Dance Figures of the West and Southwest" p.73
R: reel
Z: 2010 John Chambers <jc:trillian.mit.edu>
M: 2/4
L: 1/16
K: A
|: "A"[c2E2][c2E2] [c2E2][c2E2] | "D"[d2F2][d2F2] [d2F2][d2F2] |\
"A"[c2E2][c2E2] [c2E2][c2F2] | "E"[B8G8] |\
"A"[c2E2][c2E2] [c2E2][c2E2] | "D"[d2F2][d2F2] [f2d2][f2d2] |\
"E7"[e2c2][e2c2] [d2F2][B2G2] | "A"[A8E8] :|
|: "A"[cE]"Rocking bow"[cE][cE][cE] [cE][cE][cE][cE] | "D"[dF][dF][dF][dF] [dF][dF][dF][dF] |\
"A"[cE][cE][cE][cE] [cE][cE][cE][cE] | "E"[B8G8] |\
"A"[cE][cE][cE][cE] [cE][cE][cE][cE] | "D"[dF][dF][dF][dF] [fd][fd][fd][fd] |\
"E7"[ec][ec][ec][ec] [d2F2][B2G2] | "A"[A8E8] :|
|: "A"EEcc EEcc | "D"FFdd FFdd |\
"A"EEcc EEcc | "E"[B8G8] |\
"A"EEcc EEcc | "D"FFdd f3f |\
"E7"e2e2 d2B2 | "A"[A8E8] :|
|: "A"v[c3E3][cE] [c2E2][c2E2] | "D"[d3F3][dF] [d2F2][d2F2] |\
"A"[c3E3][cE] [c2E2][c2E2] | "E"[B8G8] |\
"A"[c3E3][cE] [c2E2][c2E2] | "D"[d2F2][d2F2] [f3d3][fd] |\
"E7"[e3c][ec] d2[B2G2] | "A"[A8E8] :|
|: "A"vME2c2 ME2c2 | "D"vF2d2 F2d2 |\
"A"vE2c2 E2c2 | "E"[B8G8] |\
"A"vE2c2 E2c2 | "D"F2d2 f3f |\
"E7"e2e2 d2B2 | "A"[A8E8] :|

%%sep 1 1 500

